X:1
T:Title
%%score { ( 1 3 ) | ( 2 4 ) }
L:1/8
Q:1/4=100
M:4/4
K:Eb
V:1 treble nm="Grand Piano"
V:3 treble 
V:2 bass 
V:4 bass 
V:1
 [G,B,E]2 [G,B,E]2 [A,DF]2 [A,DF]2 | [B,EG]2 [B,_DG]2 [A,A]2- [A,=DA]2 | G2 G2 A3 A | B2 B2 c4 | %4
w: D.~D.~McCurdy * * *||||
 [DFc]2 [DFc]2 [EB]2 [EB]2 | [DA]2 [DA]2 [EG]4 | [F,CEF]2 [F,CEF]2 [CE=A]2 [CEA]2 | [DB]6 [DF=B]2 | %8
w: ||||
[M:9/8] [Ec]2 [Ae]- [Ae]2 [Ae]- [Ae]2 [_Gc] |[M:4/4] [_G=A]2 [=GB]6 | GF=EF G2 =A2 | %11
w: |||
 [DB]4 [D_GB]2 [DGB]2 | [GB]2 [EB]2 [DA]3 [DA] | [EG]2 [EG]2 [E=A]2 [EA]2 | %14
w: |||
 [EB][EB] [DAc]4 [DAd]2 | [GBe]8 |] %16
w: ||
V:2
 E,2 E,2 B,,2 B,,2 | E,2 E,2 A,,4 | [E,B,E]2 [E,B,E]2 [F,A,B,D]3 [F,A,B,D] | %3
 [G,B,EG]2 [G,B,_DG]2 [A,CEA]4 | [B,,A,]2 [B,,A,]2 [B,,G,]2 [B,,G,]2 | %5
 [=B,,F,]2 [B,,F,]2 E,2- [_B,,E,]2 | A,,2 A,,2 [F,,F,]2 [F,,F,]2 | [B,,F,]6 [B,,A,]2 | %8
[M:9/8] [E,G,]2 [E,=B,]- [E,B,]2 [E,C]- [E,C]2 [E,=A,] |[M:4/4] [E,C]2 [E,B,]6 | %10
 [F,=A,E][F,A,E][F,_A,][F,=A,E] [F,B,E]2 [F,CE]2 | [B,,B,]4 [B,,A,]2 [B,,A,]2 | %12
 [E,G,]2 [E,A,]2 [=B,,F,]3 [B,,F,] | [C,E,]2 [C,E,]2 [=B,,_G,]2 [B,,G,]2 | %14
 [B,,G,][B,,G,] [B,,B,]4 [B,,B,]2 | [E,B,E]8 |] %16
V:3
 x8 | z4 C2 z2 | x8 | x8 | x8 | x8 | x8 | x8 |[M:9/8] x9 |[M:4/4] x8 | x8 | x8 | x8 | x8 | x8 | %15
 x8 |] %16
V:4
 x8 | x8 | x8 | x8 | x8 | z4 C,2 z2 | x8 | x8 |[M:9/8] x9 |[M:4/4] x8 | x8 | x8 | x8 | x8 | x8 | %15
 x8 |] %16

